X: 1
T: Reel Bijoux
M: C|
L: 1/8
R: reel
K:D 
%%text $1Play pickups.
ag|:"D"fafd Adcd |"D#dim"Bdef "Em"g2gf|"A7"egec Acec|"D"defg "A7"a2 ag|
"D"fafd Adcd |"D#dim"Bdef "Em"g2gf|"A7"e2 ce aece|1dfec "D"d2 "A+"ag:|\
	[2 "A"dfec "D"dBAF ||
|:"D"D2FA dAFA|"G"BABc "D"dBAF| "D"D2FA dAFD|"Em7"E2CE "A7"A,ECE|
"D"D2 FA dAFA|"G"BABc defg| "D"a2 fa "G"gfed|1 "A7"cABc "D"dBAF:|[2 "A7"cABc "D"d2|]

%%scale .5
%%text 04/16/14 

#include "RightHeader.h"
%%text Set 119 NEFFA 2014 Québecois set, continued
$SmallLMargin
$SmallRMargin
%%scale .8
